X: 1
T: OLD MAN DILLON
T: Seanduine Diollun
R: jig
Z: 2009 John Chambers <jc:trillian.mit.edu>
S: printed MS of unknown origin
M: 6/8
L: 1/8
K: Ador
A/G/ \
| EAA ABd | edB c2A | BGG DGG | BdB {d}cBA \
| EAA ABd | edB ~g3 | edc Bcd | ecA A2 :|
g \
| gef g2a | gef gdc | BGG dGG | B{c}dB cBA \
| gef {ga}g2a | gef ~g3 | edc Bcd ecA A2 |]
a \
| gef g2a | gef gdc | BGG dGG | B{c}dB cBA \
| EAA ABc | edB ~g3 | edc Bcd ecA A2 |]
